X: 160
T: Aşamadım Şu Dağların Belinden
C: Selahattin Tekakçe
O: Turkey
F: http://compmusic.upf.edu/node/140
N: tahir--turku--bektasidevrirevani--asamadim_su--eskisehir
N: makam= tahir
N: form= turku
N: usul= bektasidevrirevani = 13/8
M: 13/8
L: 1/16
K: C _2/4B ^3/4f  
Q: 1/4=126
%%MIDI tuningsystem comma53
ac'2b baa2 ga3 a2a2 f2g2 a2a{c'}b {c'}a2 | z18 | \
w:  A şa *  ma *  dım  şu  dağ la rın  be *  lin den_ *  *  *  a  |  | 
e3dde/f/g3/2a/gafge2dcd2  | 
w:  man   *  Gayf_ *  *  *  i çer *  *  *  ken   | 
c2cde2d2g^2/4fedc2BAG2 | c2BcBAA2A8-A2  | 
w:  fin can  *  *  *  gay *  *  *  dı   |  e *  *  *  *  lim den    | 
z4e2=fge2dcd2z4 | c2cde2d2g^2/4fedc2BAG2  | 
w:  Gayf_ i *  çer *  *  ken   |  fin can  *  *  *  gay *  *  *  dı   | 
c2BcBAA2A8-A2 | z26 | ac'2bba a2ga3a2 a2f2 g2a2 a{c'}b{c'}a2  | 
w:  e *  *  *  *  lim den    |  |  Kur tu *  lay *  dım  şu  zâ li min  di *  lin den_ *  *  *  a  | 
z18  | e3dde/f/g3/2a/gafge2dcd2 | c2cde2d2g^2/4fedc2BAG2  | 
w:  |  man   *  Ör *  *  *  de ğim  *  *  *  gö  |  lü ne  *  *  *  gir *  *  *  me  | 
c2BcBAA2A8-A2 | z4e2=fge2dcd2z4  | c2cde2d2g^2/4fedc2BAG2 | 
w:  ye  *  *  *  *  gel dim    |  Şa hi *  nim  *  *  ko  |  lu na  *  *  *  kon *  *  *  ma  | 
c2BcBAA2A8-A2  | z26  | ac'2b baa2 ga3 a2a2 f2g2 a2a{c'}b {c'}a2 | 
w:  ya  *  *  *  *  gel dim    |  |  A şa *  ma *  dım  şu  dağ la rın  be *  lin den_ *  *  *  a  | 
z18 | e3dde/f/g3/2a/gafge2dcd2  | c2cde2d2g^2/4fedc2BAG2 | 
w:  |  man   *  Gayf_ *  *  *  i çer *  *  *  ken   |  fin can  *  *  *  gay *  *  *  dı   | 
c2BcBAA2A8-A2  | z4e2=fge2dcd2z4 | c2cde2d2g^2/4fedc2BAG2  | 
w:  e *  *  *  *  lim den    |  Gayf_ i *  çer *  *  ken   |  fin can  *  *  *  gay *  *  *  dı   | 
c2BcBAA2A8-A2 | z26 | ac'2bba a2ga3a2 a2f2 g2a2 a{c'}b{c'}a2  | 
w:  e *  *  *  *  lim den    |  |  Kur tu *  lay *  dım  şu  zâ li min  di *  lin den_ *  *  *  a  | 
z18  | e3dde/f/g3/2a/gafge2dcd2 | c2cde2d2g^2/4fedc2BAG2  | 
w:  |  man   *  Ör *  *  *  de ğim  *  *  *  gö  |  lü ne  *  *  *  gir *  *  *  me  | 
c2BcBAA2A8-A2 | z4e2=fge2dcd2z4  | c2cde2d2g^2/4fedc2BAG2 | 
w:  ye  *  *  *  *  gel dim    |  Şa hi *  nim  *  *  ko  |  lu na  *  *  *  kon *  *  *  ma  | 
c2BcBAA2A8-A2  | |


